packages/gestalt/src/icons/pin.svg

<svg width="24" height="24" xmlns="http://www.w3.org/2000/svg"><path fill="#B5B5B5" d="M18 13.5c0-2.22-1.21-4.15-3-5.19V2.45A2.5 2.5 0 0 0 17 0H7a2.5 2.5 0 0 0 2 2.45v5.86c-1.79 1.04-3 2.97-3 5.19h5v8.46L12 24l1-2.04V13.5h5z"/></svg>

<svg width="24" height="24" viewBox="0 0 24 24" xmlns="http://www.w3.org/2000/svg"><path fill="#B5B5B5" d="M18.00,13.50 C18.00,11.28 16.79,9.35 15.00,8.31 L15.00,2.45 C16.14,2.22 17.00,1.21 17.00,0.00 L7.00,0.00 C7.00,1.21 7.86,2.22 9.00,2.45 L9.00,8.31 C7.21,9.35 6.00,11.28 6.00,13.50 L11.00,13.50 L11.00,21.96 L12.00,24.00 L13.00,21.96 L13.00,13.50 L18.00,13.50 Z"/></svg>
